X:638
T:The Matelot
C:Matthew Welch, 1767 - chords from the figured bass
M:6/8
R:Jig
L:1/8
S:Colin Hume's website,  colinhume.com  - chords can also be printed below the stave.
Q:3/8=110
K:D
P:A
V:1
%%MIDI gchord z2cz2c
%%MIDI program 71       % Clarinet
%%MIDI chordprog 46     % Orchestral Harp
|: D | "D"FED FED | "A"A2A A2A | "Bm"Bcd AGF | "A"E2E E2D |
"D"FED FED | "A"A2A A2A | "Bm"Bcd "Em"edc | "D"dAF D2 :|
V:2 bass octave=-2
%%MIDI program 57       % Trombone
|: z | d2d d2d | edc edc | d2d d2d | cBA cBA |
d2d d2d | edc edc | d3 g2a | d3 d2 :|
P:B
V:1
|: f | "D"fdf fdf | "A"[ce]2[ce] [ce]2A | "D"Bcd AGF | "A"E2E E2e |
"D"fdf fdf | "A"[ce]2[ce] [ce]2A | "Bm"Bcd "Em"edc | "D"d3 d2 :|
V:2
|: z | d'2d' d'2d' | c'ac' c'ac' | d'2d' d'2d | cBA cBA |
d'2d' d'2d' | c'ac' c'ac' | d3g2a | d'af d2 :|

